X:23018
T:Westmoreland Waltz
R:Waltz
C:Trad.
O:England
Z:Paul Hardy's Session Tunebook 2015 (see www.paulhardy.net). Creative Commons cc by-nc-sa licenced.
M:3/4
L:1/4
Q:1/4=120
K:G
d/2c/2|"G"B3/2A/2G|"D"F3/2E/2D|"Em"E3/2F/2G|"D"F2G|"Am"A3/2B/2c|"G"B3/2c/2d|"Em"e3/2f/2g|"D"f3/2e/2f|
"G"g2g|gdB|"C"c2B|"Am"A3/2B/2c/2d/2|"G"BGB|"D"AFD|"G"G3|G2g/2a/2||
"G"b3/2a/2g|"D"a3/2g/2f|"Em"g3/2f/2e|"G"d3/2e/2f|"C"g3/2f/2e|"G"deB|"D"A3|"D7"d3|
"G"B3/2A/2B|GgB|"Am"c2B|"D"A3/2B/2c/2d/2|"G"BGB|"D7"AFD|"G"G3|G2|]

